images_elementary_svg/cmd/lc_presentationcurrentslide.svg

<svg xmlns="http://www.w3.org/2000/svg" xmlns:xlink="http://www.w3.org/1999/xlink" height="24" width="24"><defs><linearGradient id="a"><stop offset="0" stop-opacity=".318"/><stop offset="1" stop-opacity=".24"/></linearGradient><linearGradient id="b"><stop offset="0" stop-color="#fff"/><stop offset="0" stop-color="#fff" stop-opacity=".235"/><stop offset="1" stop-color="#fff" stop-opacity=".157"/><stop offset="1" stop-color="#fff" stop-opacity=".392"/></linearGradient><linearGradient id="c"><stop offset="0" stop-color="#fff"/><stop offset="0" stop-color="#fff" stop-opacity=".235"/><stop offset="1" stop-color="#fff" stop-opacity=".157"/><stop offset="1" stop-color="#fff" stop-opacity=".392"/></linearGradient><linearGradient id="d"><stop offset="0" stop-color="#f4f4f4"/><stop offset="1" stop-color="#dbdbdb"/></linearGradient><linearGradient id="e"><stop offset="0"/><stop offset="1" stop-opacity="0"/></linearGradient><linearGradient id="f"><stop offset="0" stop-opacity="0"/><stop offset=".5"/><stop offset="1" stop-opacity="0"/></linearGradient><linearGradient y2="2.906" x2="-51.786" y1="50.786" x1="-51.786" gradientTransform="matrix(.3746 0 0 .37083 29.393 2.44)" gradientUnits="userSpaceOnUse" id="s" xlink:href="#a"/><linearGradient y2="41.267" x2="24" y1="6.733" x1="24" gradientTransform="matrix(.66892 0 0 .4054 -1.18 3.27)" gradientUnits="userSpaceOnUse" id="r" xlink:href="#b"/><linearGradient y2="41.267" x2="37.633" y1="6.733" x1="37.633" gradientTransform="matrix(.5135 0 0 .4054 -.325 3.27)" gradientUnits="userSpaceOnUse" id="p" xlink:href="#c"/><linearGradient y2="47.013" x2="25.132" y1=".985" x1="25.132" gradientTransform="matrix(.457 0 0 .3477 3.03 4.123)" gradientUnits="userSpaceOnUse" id="o" xlink:href="#d"/><radialGradient r="117.143" fy="486.648" fx="605.714" cy="486.648" cx="605.714" gradientTransform="matrix(.0132 0 0 .0082 13.363 17.98)" gradientUnits="userSpaceOnUse" id="n" xlink:href="#e"/><radialGradient r="117.143" fy="486.648" fx="605.714" cy="486.648" cx="605.714" gradientTransform="matrix(-.0132 0 0 .0082 10.637 17.98)" gradientUnits="userSpaceOnUse" id="m" xlink:href="#e"/><linearGradient y2="609.505" x2="302.857" y1="366.648" x1="302.857" gradientTransform="matrix(.0387 0 0 .0082 -1.997 17.98)" gradientUnits="userSpaceOnUse" id="l" xlink:href="#f"/><linearGradient id="g"><stop offset="0" stop-color="#ffa154"/><stop offset="1" stop-color="#f37329"/></linearGradient><linearGradient gradientUnits="userSpaceOnUse" y2="21.517" x2="4" y1="4.559" x1="4" id="q" xlink:href="#g"/><linearGradient id="i"><stop offset="0" stop-color="#cdf87e"/><stop offset=".262" stop-color="#a2e34f"/><stop offset=".661" stop-color="#68b723"/><stop offset="1" stop-color="#1d7e0d"/></linearGradient><linearGradient id="h" gradientUnits="userSpaceOnUse" x1="316.472" x2="317.624" y1="138.897" y2="141.195"><stop offset="0" stop-color="#fff"/><stop offset="1"/></linearGradient><radialGradient gradientTransform="matrix(0 .6154 -.6695 0 41.292 -38.28)" gradientUnits="userSpaceOnUse" xlink:href="#i" id="t" fy="48.19" fx="65.08" r="31" cy="48.19" cx="65.08"/><linearGradient id="j"><stop offset="0" stop-color="#fff"/><stop offset=".002" stop-color="#fff" stop-opacity=".235"/><stop offset=".392" stop-color="#fff" stop-opacity=".157"/><stop offset="1" stop-color="#fff" stop-opacity=".392"/></linearGradient><linearGradient id="u" gradientTransform="matrix(.2166 0 0 .2052 1.97 4.495)" gradientUnits="userSpaceOnUse" x1="34.404" x2="13.759" y1="14.66" y2="46.874"><stop offset="0" stop-color="#fff"/><stop offset="1" stop-color="#fff" stop-opacity="0"/></linearGradient><linearGradient gradientTransform="translate(2 10)" xlink:href="#k" id="w" y1="3" x2="0" y2="14" gradientUnits="userSpaceOnUse"/><linearGradient id="k"><stop offset="0" stop-color="#fff"/><stop offset=".083" stop-color="#fff" stop-opacity=".235"/><stop offset=".392" stop-color="#fff" stop-opacity=".157"/><stop offset="1" stop-color="#fff" stop-opacity=".392"/></linearGradient><radialGradient xlink:href="#i" id="v" cx="1.076" cy="7.027" fx="1.076" fy="7.027" r="1.347" gradientTransform="matrix(-.3423 13.813 -12.0143 -.238 88.37 -3.04)" gradientUnits="userSpaceOnUse"/></defs><path opacity=".15" fill="url(#l)" overflow="visible" d="M2.65 21h18.7v2H2.65z"/><path d="M2.65 21v2c-.683.004-1.65-.448-1.65-1s.762-1 1.65-1z" opacity=".15" fill="url(#m)" overflow="visible"/><path d="M21.35 21v2c.683.004 1.65-.448 1.65-1s-.762-1-1.65-1z" opacity=".15" fill="url(#n)" overflow="visible"/><path d="M5 5h17v16H5V5z" fill="url(#o)"/><path d="M21.5 20.5h-19v-15h19z" fill="none" stroke="url(#p)" stroke-linecap="square"/><path d="M2 4.5c-.277 0-.5.223-.5.5v16c0 .277.223.5.5.5h3v-17z" color="#000" fill="url(#q)" overflow="visible"/><path d="M4.5 20.5h-2v-15h2" opacity=".5" fill="none" stroke="url(#r)" stroke-linecap="square"/><path d="M6 7.5h4m1 0h2m1 0h1m1 0h2m-12 4h2m-2 2h1m-1 2h2m-2 2h2m0-4h1m0 4h1" fill="none" stroke="#aaa"/><path d="M5 21.5h17.5v-17H5" color="#000" overflow="visible" fill="none" stroke="url(#s)" stroke-linejoin="round"/><path d="M5 21.5H1.5v-17H5" style="font-variant-east_asian:normal" opacity=".4" color="#000" fill="none" stroke="#cc3b02" stroke-linejoin="round" overflow="visible"/><path d="M20 14a4 4 0 1 1-2.116-3.53L16 14z" style="isolation:auto;mix-blend-mode:normal;font-variant-east_asian:normal" color="#000" overflow="visible" opacity=".5" solid-color="#000000" fill="url(#q)"/><path style="isolation:auto;mix-blend-mode:normal;font-variant-east_asian:normal" d="M20 14.012c0 1.734-1.26 3.392-2.933 3.854-1.67.463-3.605-.31-4.497-1.798-.007.007 3.43-2.056 3.43-2.056z" color="#000" overflow="visible" opacity=".5" solid-color="#000000" fill="url(#q)"/><path style="isolation:auto;mix-blend-mode:normal;font-variant-east_asian:normal" d="M20 14c0 1.734-1.26 3.392-2.933 3.855C17.027 17.848 16 14 16 14z" color="#000" overflow="visible" solid-color="#000000" fill="url(#q)"/><g color="#000"><path style="isolation:auto;mix-blend-mode:normal" d="M3.506 14.54v-10l9 5z" overflow="visible" transform="translate(9.994 7.96)" solid-color="#000000" fill="url(#t)"/><path style="isolation:auto;mix-blend-mode:normal" d="M13.5 22.5v-10l9 5z" overflow="visible" opacity=".5" solid-color="#000000" fill="none" stroke="#0f5a00" stroke-linecap="round" stroke-linejoin="round"/><path d="M3.506 12.818V6.24l5.8 3.28z" opacity=".41" fill="none" stroke="url(#u)" stroke-linecap="round" transform="translate(10.994 7.96)"/></g><g color="#000"><path fill="url(#v)" d="M.496 12.52h3v9.972h-3z" transform="translate(8)"/><path opacity=".5" fill="none" stroke="#0f5a00" stroke-linecap="round" stroke-linejoin="round" d="M8.496 12.52h3v9.972h-3z"/><path opacity=".5" fill="url(#w)" d="M1 13h2v1H1z" transform="translate(8)"/></g></svg>

<svg xmlns="http://www.w3.org/2000/svg" xmlns:xlink="http://www.w3.org/1999/xlink" height="24" width="24"><defs><linearGradient id="a"><stop offset="0" stop-opacity=".318"/><stop offset="1" stop-opacity=".24"/></linearGradient><linearGradient id="b"><stop offset="0" stop-color="#fff"/><stop offset="0" stop-color="#fff" stop-opacity=".235"/><stop offset="1" stop-color="#fff" stop-opacity=".157"/><stop offset="1" stop-color="#fff" stop-opacity=".392"/></linearGradient><linearGradient id="c"><stop offset="0" stop-color="#fff"/><stop offset="0" stop-color="#fff" stop-opacity=".235"/><stop offset="1" stop-color="#fff" stop-opacity=".157"/><stop offset="1" stop-color="#fff" stop-opacity=".392"/></linearGradient><linearGradient id="d"><stop offset="0" stop-color="#f4f4f4"/><stop offset="1" stop-color="#dbdbdb"/></linearGradient><linearGradient id="e"><stop offset="0"/><stop offset="1" stop-opacity="0"/></linearGradient><linearGradient id="f"><stop offset="0" stop-opacity="0"/><stop offset=".5"/><stop offset="1" stop-opacity="0"/></linearGradient><linearGradient id="g"><stop offset="0" stop-color="#f4f4f4"/><stop offset="1" stop-color="#dbdbdb"/></linearGradient><linearGradient y2="2.906" x2="-51.786" y1="50.786" x1="-51.786" gradientTransform="matrix(.3746 0 0 .37083 29.393 2.44)" gradientUnits="userSpaceOnUse" id="r" xlink:href="#a"/><linearGradient y2="41.267" x2="24" y1="6.733" x1="24" gradientTransform="matrix(.66892 0 0 .4054 -1.18 3.27)" gradientUnits="userSpaceOnUse" id="q" xlink:href="#b"/><linearGradient y2="41.267" x2="37.633" y1="6.733" x1="37.633" gradientTransform="matrix(.5135 0 0 .4054 -.325 3.27)" gradientUnits="userSpaceOnUse" id="o" xlink:href="#c"/><linearGradient y2="47.013" x2="25.132" y1=".985" x1="25.132" gradientTransform="matrix(.45714 0 0 .34765 3.03 4.123)" gradientUnits="userSpaceOnUse" id="n" xlink:href="#d"/><radialGradient r="117.143" fy="486.648" fx="605.714" cy="486.648" cx="605.714" gradientTransform="matrix(.01325 0 0 .00824 13.363 17.98)" gradientUnits="userSpaceOnUse" id="m" xlink:href="#e"/><radialGradient r="117.143" fy="486.648" fx="605.714" cy="486.648" cx="605.714" gradientTransform="matrix(-.01325 0 0 .00824 10.637 17.98)" gradientUnits="userSpaceOnUse" id="l" xlink:href="#e"/><linearGradient y2="609.505" x2="302.857" y1="366.648" x1="302.857" gradientTransform="matrix(.03873 0 0 .00824 -1.997 17.98)" gradientUnits="userSpaceOnUse" id="k" xlink:href="#f"/><linearGradient id="h"><stop offset="0" stop-opacity=".318"/><stop offset="1" stop-opacity=".24"/></linearGradient><linearGradient id="i"><stop offset="0" stop-color="#ffa154"/><stop offset="1" stop-color="#f37329"/></linearGradient><linearGradient gradientUnits="userSpaceOnUse" y2="21.517" x2="4" y1="4.559" x1="4" id="p" xlink:href="#i"/><linearGradient id="v" gradientUnits="userSpaceOnUse" x1="13" x2="6.192" xlink:href="#j" y1="12.631" y2="24.181"/><linearGradient id="j"><stop offset="0" stop-color="#fff"/><stop offset="1" stop-color="#fff" stop-opacity="0"/></linearGradient><linearGradient id="u" gradientUnits="userSpaceOnUse" x1="10.5" x2="10.5" y1="13.853" y2="22.138"><stop offset="0" stop-color="#9cde4a"/><stop offset="1" stop-color="#89d827"/></linearGradient><linearGradient id="t" gradientTransform="matrix(.21663 0 0 .20517 12.963 12.455)" gradientUnits="userSpaceOnUse" x1="34.404" x2="13.759" xlink:href="#j" y1="14.66" y2="46.874"/><radialGradient id="s" cx="605.714" cy="486.648" gradientTransform="matrix(.01205 0 0 .00824 14.24 17.98)" gradientUnits="userSpaceOnUse" r="117.143" xlink:href="#e"/></defs><path opacity=".15" fill="url(#k)" overflow="visible" d="M2.65 21h18.7v2H2.65z"/><path d="M2.65 21v2c-.683.004-1.65-.448-1.65-1s.762-1 1.65-1z" opacity=".15" fill="url(#l)" overflow="visible"/><path d="M21.35 21v2c.683.004 1.65-.448 1.65-1s-.762-1-1.65-1z" opacity=".15" fill="url(#m)" overflow="visible"/><path d="M5 5h17v16H5V5z" fill="url(#n)"/><path d="M21.5 20.5h-19v-15h19z" fill="none" stroke="url(#o)" stroke-linecap="square"/><path d="M2 4.5c-.277 0-.5.223-.5.5v16c0 .277.223.5.5.5h3v-17z" color="#000" fill="url(#p)" overflow="visible"/><path d="M4.5 20.5h-2v-15h2" opacity=".5" fill="none" stroke="url(#q)" stroke-linecap="square"/><path d="M6 7.5h4M11 7.5h2M14 7.5h1M16 7.5h2M6 11.5h2M6 13.5h1M6 15.5h2M6 17.5h2M8 13.5h1M9 17.5h1" fill="none" stroke="#aaa"/><path d="M5 21.5h17.5v-17H5" color="#000" overflow="visible" fill="none" stroke="url(#r)" stroke-linejoin="round"/><path d="M5 21.5H1.5v-17H5" style="font-variant-east_asian:normal" opacity=".4" color="#000" fill="none" stroke="#cc3b02" stroke-linejoin="round" overflow="visible"/><path d="M20 14a4 4 0 1 1-2.116-3.53L16 14z" style="isolation:auto;mix-blend-mode:normal;font-variant-east_asian:normal" color="#000" overflow="visible" opacity=".5" solid-color="#000000" fill="url(#p)"/><path style="isolation:auto;mix-blend-mode:normal;font-variant-east_asian:normal" d="M20 14.012c0 1.734-1.26 3.392-2.933 3.854-1.67.463-3.605-.31-4.497-1.798-.007.007 3.43-2.056 3.43-2.056z" color="#000" overflow="visible" opacity=".5" solid-color="#000000" fill="url(#p)"/><path style="isolation:auto;mix-blend-mode:normal;font-variant-east_asian:normal" d="M20 14c0 1.734-1.26 3.392-2.933 3.855C17.027 17.848 16 14 16 14z" color="#000" overflow="visible" solid-color="#000000" fill="url(#p)"/><path d="M21.5 21v2c.62.004 1.5-.448 1.5-1s-.692-1-1.5-1z" opacity=".15" fill="url(#s)"/><path d="M13.5 22.5v-10l9 5z" fill="#9cde4a" fill-rule="evenodd" stroke="#5ca12a" stroke-linecap="round" stroke-linejoin="round"/><path d="M14.5 20.778V14.2l5.8 3.28z" opacity=".41" fill="none" stroke="url(#t)" stroke-linecap="round"/><path d="M9.5 12.5h2v10h-2z" fill="url(#u)" stroke="#5ca12a" stroke-linejoin="round"/><path d="M10 13v1h1v-1zm0 8v1h1v-1z" opacity=".41" fill="url(#v)"/></svg>
